css/images/noun-beijing-1039730.svg

<svg xmlns="http://www.w3.org/2000/svg" xmlns:xlink="http://www.w3.org/1999/xlink" version="1.1" x="0px" y="0px" viewBox="0 0 150 187.5" enable-background="new 0 0 150 150" xml:space="preserve"><g><g><path d="M139.6611328,111.1147461h-130V76.1762695h130V111.1147461z M11.6611328,109.1147461h126V78.1762695h-126V109.1147461z"/></g><g><path d="M81.5917969,111.1147461H67.7304688V96.6210938c0-3.7446289,3.046875-6.7915039,6.7919922-6.7915039h0.2783203    c3.7441406,0,6.7910156,3.046875,6.7910156,6.7915039V111.1147461z M69.7304688,109.1147461h9.8613281V96.6210938    c0-2.6420898-2.1494141-4.7915039-4.7910156-4.7915039h-0.2783203c-2.6425781,0-4.7919922,2.1494141-4.7919922,4.7915039    V109.1147461z"/></g><g><path d="M43.7041016,111.1147461H31.890625v-11.675293c0-3.1933594,2.5986328-5.7915039,5.7919922-5.7915039h0.2294922    c3.1933594,0,5.7919922,2.5981445,5.7919922,5.7915039V111.1147461z M33.890625,109.1147461h7.8134766v-9.675293    c0-2.0908203-1.7011719-3.7915039-3.7919922-3.7915039h-0.2294922c-2.0908203,0-3.7919922,1.7006836-3.7919922,3.7915039    V109.1147461z"/></g><g><path d="M116.4082031,111.1147461h-11.8134766v-11.675293c0-3.1933594,2.5986328-5.7915039,5.7919922-5.7915039h0.2294922    c3.1933594,0,5.7919922,2.5981445,5.7919922,5.7915039V111.1147461z M106.5947266,109.1147461h7.8134766v-9.675293    c0-2.0908203-1.7011719-3.7915039-3.7919922-3.7915039h-0.2294922c-2.0908203,0-3.7919922,1.7006836-3.7919922,3.7915039    V109.1147461z"/></g><g><path d="M130.6796875,66.6132813H19.8476353l-0.1845493-0.0771484c-3.4433594-1.4350586-6.2001953-5.4755859-8.6660156-9.6279297    l-0.8974609-1.5107422h130.2392578l-0.7978516,1.4755859c-2.0507813,3.7939453-4.6845703,7.9077148-8.6699219,9.6557617    L130.6796875,66.6132813z M20.2558594,64.6132813h109.9980469c2.8564453-1.3359375,4.9853516-4.2490234,6.7041016-7.2158203    H13.6328125C15.6289063,60.605957,17.8046875,63.5,20.2558594,64.6132813z"/></g><g><path d="M121.859375,57.3974609H28.6689453l-0.2099609-0.1040039c-2.6621094-1.3208008-5.1279297-4.2285156-7.328125-8.6416016    l-0.8271484-1.6572266l1.8388672,0.2177734c5.6982422,0.6748047,11.4970703,1.0170898,17.2363281,1.0170898h71.6347656    c5.0898438,0,10.2373047-0.2695313,15.2978516-0.8007813L130.125,47.0288086l-0.7226563,1.590332    c-1.8828125,4.1474609-4.4160156,7.144043-7.3251953,8.6645508L121.859375,57.3974609z M29.1464844,55.3974609h92.2158203    c2.4453125-1.3598633,4.2216797-3.7861328,5.4257813-6.0078125l-0.2675781,0.0283203    c-5.1298828,0.5385742-10.3476563,0.8115234-15.5068359,0.8115234H39.3789063    c-5.1826172,0-10.4140625-0.2753906-15.5791016-0.8193359C25.4824219,52.3583984,27.3085938,54.4077148,29.1464844,55.3974609z"/></g><g><path d="M120.4716797,49.9013672c-4.1455078-0.9575195-7.3066406-5.472168-9.390625-9.0161133H36.8925781    c-1.9853516,3.4853516-5.2099609,7.6386719-9.7060547,8.7866211l-0.4941406-1.9375    c4.0244141-1.027832,6.9707031-5.0961914,8.734375-8.328125l0.2841797-0.5209961h76.5234375l0.2880859,0.5009766    c1.8896484,3.28125,4.8164063,7.7392578,8.3984375,8.5668945L120.4716797,49.9013672z"/></g><g><path d="M90.3388672,77.4506836H58.984375V64.6132813h31.3544922V77.4506836z M60.984375,75.4506836h27.3544922v-8.8374023    H60.984375V75.4506836z"/></g><g><path d="M115.9384766,78.1762695H33.3837891V64.6132813h82.5546875V78.1762695z M35.3837891,76.1762695h78.5546875v-9.5629883    H35.3837891V76.1762695z"/></g></g><text x="0" y="165" fill="#000000" font-size="5px" font-weight="bold" font-family="'Helvetica Neue', Helvetica, Arial-Unicode, Arial, Sans-serif">Created by DinosoftLabs</text><text x="0" y="170" fill="#000000" font-size="5px" font-weight="bold" font-family="'Helvetica Neue', Helvetica, Arial-Unicode, Arial, Sans-serif">from the Noun Project</text></svg>

<svg width="150" height="188" viewBox="0 0 150 188" fill="none" xmlns="http://www.w3.org/2000/svg">
<path d="M139.661 111.115H9.66113V76.1763H139.661V111.115ZM11.6611 109.115H137.661V78.1763H11.6611V109.115Z" fill="black"/>
<path d="M81.5918 111.115H67.7305V96.6211C67.7305 92.8765 70.7773 89.8296 74.5225 89.8296H74.8008C78.5449 89.8296 81.5918 92.8765 81.5918 96.6211V111.115ZM69.7305 109.115H79.5918V96.6211C79.5918 93.979 77.4424 91.8296 74.8008 91.8296H74.5225C71.8799 91.8296 69.7305 93.979 69.7305 96.6211V109.115Z" fill="black"/>
<path d="M43.7041 111.115H31.8906V99.4395C31.8906 96.2461 34.4893 93.6479 37.6826 93.6479H37.9121C41.1055 93.6479 43.7041 96.2461 43.7041 99.4395V111.115ZM33.8906 109.115H41.7041V99.4395C41.7041 97.3486 40.0029 95.6479 37.9121 95.6479H37.6826C35.5918 95.6479 33.8906 97.3486 33.8906 99.4395V109.115Z" fill="black"/>
<path d="M116.408 111.115H104.595V99.4395C104.595 96.2461 107.193 93.6479 110.387 93.6479H110.616C113.81 93.6479 116.408 96.2461 116.408 99.4395V111.115ZM106.595 109.115H114.408V99.4395C114.408 97.3486 112.707 95.6479 110.616 95.6479H110.387C108.296 95.6479 106.595 97.3486 106.595 99.4395V109.115Z" fill="black"/>
<path d="M130.68 66.6133H19.8476L19.6631 66.5361C16.2197 65.1011 13.4629 61.0605 10.9971 56.9082L10.0996 55.3975H140.339L139.541 56.873C137.49 60.667 134.856 64.7808 130.871 66.5288L130.68 66.6133ZM20.2559 64.6133H130.254C133.11 63.2773 135.239 60.3643 136.958 57.3975H13.6328C15.6289 60.606 17.8047 63.5 20.2559 64.6133Z" fill="black"/>
<path d="M121.859 57.3975H28.6689L28.459 57.2935C25.7969 55.9727 23.3311 53.0649 21.1309 48.6519L20.3037 46.9946L22.1426 47.2124C27.8408 47.8872 33.6396 48.2295 39.3789 48.2295H111.014C116.104 48.2295 121.251 47.96 126.312 47.4287L130.125 47.0288L129.402 48.6191C127.52 52.7666 124.986 55.7632 122.077 57.2837L121.859 57.3975ZM29.1465 55.3975H121.362C123.808 54.0376 125.584 51.6113 126.788 49.3896L126.521 49.418C121.391 49.9565 116.173 50.2295 111.014 50.2295H39.3789C34.1963 50.2295 28.9648 49.9541 23.7998 49.4102C25.4824 52.3584 27.3086 54.4077 29.1465 55.3975Z" fill="black"/>
<path d="M120.472 49.9014C116.326 48.9438 113.165 44.4292 111.081 40.8853H36.8926C34.9072 44.3706 31.6826 48.5239 27.1865 49.6719L26.6924 47.7344C30.7168 46.7065 33.6631 42.6382 35.4268 39.4062L35.7109 38.8853H112.234L112.522 39.3862C114.412 42.6675 117.339 47.1255 120.921 47.9531L120.472 49.9014Z" fill="black"/>
<path d="M90.3389 77.4507H58.9844V64.6133H90.3389V77.4507ZM60.9844 75.4507H88.3389V66.6133H60.9844V75.4507Z" fill="black"/>
<path d="M115.938 78.1763H33.3838V64.6133H115.938V78.1763ZM35.3838 76.1763H113.938V66.6133H35.3838V76.1763Z" fill="black"/>
</svg>
